packages/kaspersky-hexa-ui-icons/src/iconsSVGs/64x42/FlagPr.svg

<svg width="64" height="42" viewBox="0 0 64 42" fill="none" xmlns="http://www.w3.org/2000/svg">
<g clip-path="url(#clip0_37941_2333)">
<rect width="64" height="42" rx="5" fill="white"/>
<rect x="0.5" y="0.5" width="63" height="41" rx="4.5" stroke="#F5F5F5"/>
<path fill-rule="evenodd" clip-rule="evenodd" d="M0 0H64V8.4H0V0ZM0 16.8H64V25.2H0V16.8ZM0 33.6V42H64V33.6H0Z" fill="#FA2222"/>
<path fill-rule="evenodd" clip-rule="evenodd" d="M0 0L28 21L0 42V0Z" fill="#1D63F9"/>
<path fill-rule="evenodd" clip-rule="evenodd" d="M9.80005 23.6755L5.68555 26.6631L7.25543 21.8267L3.14265 18.8368L8.22739 18.8354L9.80005 13.9999L11.3727 18.8354L16.4574 18.8368L12.3447 21.8267L13.9145 26.6631L9.80005 23.6755Z" fill="url(#paint0_linear_37941_2333)"/>
</g>
<defs>
<linearGradient id="paint0_linear_37941_2333" x1="2.80005" y1="13.9999" x2="2.80005" y2="27.9999" gradientUnits="userSpaceOnUse">
<stop stop-color="white"/>
<stop offset="1" stop-color="#F0F0F0"/>
</linearGradient>
<clipPath id="clip0_37941_2333">
<rect width="64" height="42" rx="5" fill="white"/>
</clipPath>
</defs>
</svg>

<svg xmlns="http://www.w3.org/2000/svg" width="64" height="42" fill="none" viewBox="0 0 64 42"><g clip-path="url(#a)"><rect width="64" height="42" fill="#fff" rx="5"/><rect width="63" height="41" x="1" y="1" stroke="#f5f5f5" rx="5"/><path fill="#fa2222" fill-rule="evenodd" d="M0 0h64v8.4H0zm0 16.8h64v8.4H0zm0 16.8V42h64v-8.4z" clip-rule="evenodd"/><path fill="#1d63f9" fill-rule="evenodd" d="m0 0 28 21L0 42z" clip-rule="evenodd"/><path fill="url(#b)" fill-rule="evenodd" d="m9.8 23.6755-4.1145 2.9876 1.57-4.8364-4.1128-2.9899 5.0847-.0014L9.8 13.9999l1.5726 4.8355 5.0847.0014-4.1127 2.9899 1.5698 4.8364z" clip-rule="evenodd"/></g><defs><linearGradient id="b" x1="3" x2="3" y1="14" y2="28" gradientUnits="userSpaceOnUse"><stop stop-color="#fff"/><stop offset="1" stop-color="#f0f0f0"/></linearGradient><clipPath id="a"><rect width="64" height="42" fill="#fff" rx="5"/></clipPath></defs></svg>
